assets/images/new-web/elite/pillar-6.svg

<svg xmlns="http://www.w3.org/2000/svg" width="51" height="23" viewBox="0 0 51 23">
    <path fill="#5D80A0" fill-rule="evenodd" d="M51 3.833c0 2.109-2.086 3.834-4.636 3.834-.418 0-.812-.039-1.183-.134l-8.252 6.804c.116.306.162.651.162.996 0 2.109-2.086 3.834-4.636 3.834-2.55 0-4.637-1.725-4.637-3.834 0-.345.047-.69.162-.996l-5.91-4.888c-.372.096-.79.134-1.206.134-.418 0-.835-.038-1.206-.134L9.11 18.19c.116.307.163.633.163.978C9.273 21.275 7.186 23 4.636 23 2.086 23 0 21.275 0 19.167c0-2.109 2.086-3.834 4.636-3.834.418 0 .812.039 1.183.134l10.57-8.72c-.115-.307-.162-.652-.162-.997 0-2.108 2.087-3.833 4.637-3.833 2.55 0 4.636 1.725 4.636 3.833 0 .345-.046.69-.162.997l5.911 4.887c.371-.096.788-.134 1.206-.134.417 0 .834.038 1.205.134l8.23-6.823c-.116-.307-.163-.633-.163-.978C41.727 1.725 43.814 0 46.364 0 48.914 0 51 1.725 51 3.833z"/>
</svg>

<?xml version="1.0" encoding="UTF-8"?>
<svg width="51px" height="23px" viewBox="0 0 51 23" version="1.1" xmlns="http://www.w3.org/2000/svg" xmlns:xlink="http://www.w3.org/1999/xlink">
    <!-- Generator: Sketch 63.1 (92452) - https://sketch.com -->
    <title>mask</title>
    <desc>Created with Sketch.</desc>
    <g id="Page-1" stroke="none" stroke-width="1" fill="none" fill-rule="evenodd">
        <g id="Artboard" transform="translate(-343.000000, -207.000000)" fill="#FFFFFF">
            <g id="mask" transform="translate(343.000000, 207.000000)">
                <path d="M51,3.833 C51,5.942 48.914,7.667 46.364,7.667 C45.946,7.667 45.552,7.628 45.181,7.533 L36.929,14.337 C37.045,14.643 37.091,14.988 37.091,15.333 C37.091,17.442 35.005,19.167 32.455,19.167 C29.905,19.167 27.818,17.442 27.818,15.333 C27.818,14.988 27.865,14.643 27.98,14.337 L22.07,9.449 C21.698,9.545 21.28,9.583 20.864,9.583 C20.446,9.583 20.029,9.545 19.658,9.449 L9.11,18.19 C9.226,18.497 9.273,18.823 9.273,19.168 C9.273,21.275 7.186,23 4.636,23 C2.086,23 0,21.275 0,19.167 C0,17.058 2.086,15.333 4.636,15.333 C5.054,15.333 5.448,15.372 5.819,15.467 L16.389,6.747 C16.274,6.44 16.227,6.095 16.227,5.75 C16.227,3.642 18.314,1.917 20.864,1.917 C23.414,1.917 25.5,3.642 25.5,5.75 C25.5,6.095 25.454,6.44 25.338,6.747 L31.249,11.634 C31.62,11.538 32.037,11.5 32.455,11.5 C32.872,11.5 33.289,11.538 33.66,11.634 L41.89,4.811 C41.774,4.504 41.727,4.178 41.727,3.833 C41.727,1.725 43.814,0 46.364,0 C48.914,0 51,1.725 51,3.833 Z" id="Path"></path>
            </g>
        </g>
    </g>
</svg>
